src/assets/emailNotifications.svg

<svg width="205" height="173" viewBox="0 0 205 173" fill="none" xmlns="http://www.w3.org/2000/svg">
<path opacity="0.6" fill-rule="evenodd" clip-rule="evenodd" d="M197.886 85.6851C197.886 132.477 159.83 170.408 112.887 170.408C65.9427 170.408 27.8868 132.477 27.8868 85.6851C27.8868 38.894 65.9427 0.962891 112.887 0.962891C159.83 0.962891 197.886 38.894 197.886 85.6851Z" fill="#F1F6F8"/>
<path fill-rule="evenodd" clip-rule="evenodd" d="M198.082 61.5543H159.688C156.734 61.5543 154.339 59.1632 154.339 56.2135V17.875C154.339 14.9262 156.734 12.5351 159.688 12.5351H198.082C201.037 12.5351 203.434 14.9262 203.434 17.875V56.2135C203.434 59.1632 201.037 61.5543 198.082 61.5543Z" fill="url(#paint0_linear)"/>
<g clip-path="url(#clip0)">
<path d="M188.82 26.0902H168.818C166.834 26.0902 165.219 27.6995 165.219 29.6775V44.63C165.219 46.6081 166.834 48.2173 168.818 48.2173H188.82C190.805 48.2173 192.419 46.608 192.419 44.63V29.6775C192.419 27.6994 190.805 26.0902 188.82 26.0902ZM190.222 44.63C190.222 45.4003 189.593 46.027 188.82 46.027H168.818C168.045 46.027 167.417 45.4003 167.417 44.63V29.6775C167.417 28.9072 168.045 28.2805 168.818 28.2805H188.82C189.593 28.2805 190.222 28.9072 190.222 29.6775V44.63Z" fill="white"/>
<path d="M192.22 29.0495C191.872 28.554 191.187 28.4335 190.69 28.7803L178.819 37.0629L166.948 28.7802C166.451 28.4334 165.766 28.5539 165.418 29.0494C165.07 29.5449 165.191 30.2277 165.688 30.5746L178.189 39.2969C178.378 39.429 178.599 39.4949 178.819 39.4949C179.039 39.4949 179.26 39.4289 179.449 39.2969L191.95 30.5746C192.447 30.2278 192.568 29.5449 192.22 29.0495Z" fill="white"/>
</g>
<mask id="mask0" mask-type="alpha" maskUnits="userSpaceOnUse" x="47" y="20" width="141" height="151">
<path fill-rule="evenodd" clip-rule="evenodd" d="M187.034 51.4555C187.034 117.1 177.841 170.303 112.598 170.303C47.3542 170.303 43.6965 56.3689 48.61 51.4555C53.5234 46.5421 47.3542 20.765 112.598 20.765C177.841 20.765 187.034 51.4555 187.034 51.4555Z" fill="#DDE4E9"/>
</mask>
<g mask="url(#mask0)">
<path d="M152.595 121.748H88.8084C79.4757 121.748 73.0249 129.538 73.0249 138.874L92.2594 172.371L71.9105 197.514C71.9105 202.826 74.3683 207.563 78.1997 210.661V297.891H81.957L88.9061 214.415H152.501L159.45 297.891H163.207V210.661C167.042 207.563 169.497 202.826 169.497 197.514V138.649C169.497 129.316 161.931 121.748 152.595 121.748Z" fill="#B6D5E1"/>
<path d="M164.007 110.516C161.92 100.005 152.698 92.4332 141.982 92.4332H128.946C128.946 96.6518 121.758 100.072 112.893 100.072C104.028 100.072 96.8434 96.6518 96.84 92.4332H80.9926C71.6027 92.4332 63.2026 98.2779 59.9368 107.085L53.0079 125.781L72.3232 138.932L77.3262 172.367H148.459L152.846 143.036L170.003 140.733L164.007 110.516Z" fill="#FF6361"/>
<path d="M120.666 92.4363L120.703 92.4262V77.3228V69.8385C122.973 69.192 124.646 67.1282 124.646 64.6503C124.646 62.1723 122.973 60.1085 120.703 59.462C120.232 59.3274 119.744 59.2331 119.225 59.2331C118.155 59.2331 117.165 59.5529 116.327 60.0883C112.552 57.378 111.384 52.5804 111.384 52.5804C95.631 52.5804 92.0251 61.8188 92.0251 61.8188V74.6731C92.0251 78.1611 95.2708 80.7401 98.6678 79.9556L105.088 78.2756V92.4396H96.8464C96.8464 96.6582 104.034 100.079 112.899 100.079C121.764 100.079 128.949 96.6582 128.952 92.4396H120.666V92.4363Z" fill="#F5C5B6"/>
<path d="M122.579 46.6415C125.521 45.0188 127.514 41.891 127.514 38.2953C127.514 33.033 123.249 28.7673 117.986 28.7673C112.724 28.7673 108.459 33.033 108.459 38.2953C108.459 39.77 108.802 41.1604 109.401 42.4062C100.348 42.6991 88.5406 46.8941 92.0253 61.8156C92.0253 61.8156 95.6311 52.5772 111.384 52.5772C111.384 52.5772 112.553 57.3749 116.327 60.0851C117.165 59.5498 118.155 59.2299 119.225 59.2299C119.741 59.2299 120.229 59.3242 120.703 59.4589C122.973 60.1053 124.646 62.1691 124.646 64.6471C124.646 67.125 122.973 69.1889 120.703 69.8353V77.3197C120.703 77.3197 128.945 71.714 128.945 60.3174C128.945 54.3347 126.353 49.7019 122.579 46.6415Z" fill="#2C2C4E"/>
<path d="M140.704 117.485L139.243 117.802L144.962 144.164L146.422 143.847L140.704 117.485Z" fill="#203254"/>
<path d="M69.995 118.368L68.5206 118.614L71.9801 139.319L73.4544 139.072L69.995 118.368Z" fill="#203254"/>
<path d="M107.319 59.7927C104.81 59.7927 102.725 61.6026 102.285 63.9866H99.4491C99.0086 61.6068 96.9238 59.7927 94.4153 59.7927C91.588 59.7927 89.285 62.0887 89.285 64.9168C89.285 67.7407 91.5838 70.0409 94.4153 70.0409C96.9238 70.0409 99.0086 68.2309 99.4491 65.8469H102.285C102.725 68.2267 104.81 70.0409 107.319 70.0409C110.146 70.0409 112.449 67.7449 112.449 64.9168C112.449 62.0929 110.146 59.7927 107.319 59.7927ZM94.4153 68.1806C92.6157 68.1806 91.1476 66.7184 91.1476 64.9168C91.1476 63.1194 92.6115 61.6529 94.4153 61.6529C96.219 61.6529 97.6831 63.1152 97.6831 64.9168C97.6831 66.7142 96.2149 68.1806 94.4153 68.1806ZM107.319 68.1806C105.519 68.1806 104.051 66.7184 104.051 64.9168C104.051 63.1194 105.515 61.6529 107.319 61.6529C109.122 61.6529 110.586 63.1152 110.586 64.9168C110.586 66.7142 109.122 68.1806 107.319 68.1806Z" fill="#203254"/>
<path d="M172.483 150.89L170.002 140.732L112.888 148.399L106.562 144.685L94.2526 149.769V163.593H112.888H162.507C169.167 163.596 174.065 157.358 172.483 150.89Z" fill="#F5C5B6"/>
</g>
<path d="M53.0131 134.584L46.0607 153.344L15.7933 159.448L7.94536 153.495L0.498047 160.943V172.4H15.79H52.5687C58.5817 172.4 64.009 168.79 66.3354 163.245L72.7256 148.011L53.0131 134.584Z" fill="#F5C5B6"/>
<path d="M158.158 158.267H204.498V171.468H158.158C154.512 171.468 151.556 168.512 151.556 164.865C151.556 161.219 154.512 158.267 158.158 158.267Z" fill="#FF6361"/>
<path d="M158.16 166.984C156.991 166.984 156.042 166.034 156.042 164.866C156.042 163.698 156.991 162.748 158.16 162.748H204.5V166.984H158.16Z" fill="#EBEBE2"/>
<path d="M159.014 138.689H194.708C200.115 138.689 204.495 143.072 204.495 148.476C204.495 153.883 200.112 158.263 194.708 158.263H159.014V138.689Z" fill="url(#paint1_linear)"/>
<path d="M159.014 153.782V143.173H194.708C197.634 143.173 200.011 145.553 200.011 148.476C200.011 151.401 197.631 153.778 194.708 153.778H159.014V153.782Z" fill="#EBEBE2"/>
<path fill-rule="evenodd" clip-rule="evenodd" d="M98.3162 163.551L84.7959 110.191H0.498047L16.2217 172.242H131.619V163.551H98.3162Z" fill="url(#paint2_linear)"/>
<defs>
<linearGradient id="paint0_linear" x1="150.543" y1="57.363" x2="198.638" y2="19.3091" gradientUnits="userSpaceOnUse">
<stop stop-color="#FFB36D"/>
<stop offset="1" stop-color="#FF8888"/>
</linearGradient>
<linearGradient id="paint1_linear" x1="169.879" y1="135.85" x2="186.848" y2="165.321" gradientUnits="userSpaceOnUse">
<stop stop-color="#FFD3AA"/>
<stop offset="1" stop-color="#FF9696"/>
</linearGradient>
<linearGradient id="paint2_linear" x1="-9.6391" y1="166.936" x2="45.5159" y2="74.8615" gradientUnits="userSpaceOnUse">
<stop stop-color="#FFB36D"/>
<stop offset="1" stop-color="#FF8888"/>
</linearGradient>
<clipPath id="clip0">
<rect width="27.2" height="27.1114" fill="white" transform="translate(165.219 23.598)"/>
</clipPath>
</defs>
</svg>

<svg width="205" height="173" fill="none" xmlns="http://www.w3.org/2000/svg"><path opacity=".6" fill-rule="evenodd" clip-rule="evenodd" d="M197.886 85.685c0 46.792-38.056 84.723-84.999 84.723-46.944 0-85-37.931-85-84.723 0-46.791 38.056-84.722 85-84.722 46.943 0 84.999 37.931 84.999 84.722z" fill="#F1F6F8"/><path fill-rule="evenodd" clip-rule="evenodd" d="M198.082 61.554h-38.394a5.345 5.345 0 01-5.349-5.34V17.875a5.345 5.345 0 015.349-5.34h38.394a5.347 5.347 0 015.352 5.34v38.339c0 2.95-2.397 5.34-5.352 5.34z" fill="url(#paint0_linear)"/><g clip-path="url(#clip0)" fill="#fff"><path d="M188.82 26.09h-20.002a3.598 3.598 0 00-3.599 3.587V44.63a3.598 3.598 0 003.599 3.587h20.002a3.597 3.597 0 003.599-3.587V29.677a3.597 3.597 0 00-3.599-3.587zm1.402 18.54c0 .77-.629 1.397-1.402 1.397h-20.002a1.4 1.4 0 01-1.401-1.397V29.677a1.4 1.4 0 011.401-1.396h20.002c.773 0 1.402.626 1.402 1.396V44.63z"/><path d="M192.22 29.05a1.1 1.1 0 00-1.53-.27l-11.871 8.283-11.871-8.283a1.1 1.1 0 00-1.53.27 1.093 1.093 0 00.27 1.525l12.501 8.722a1.1 1.1 0 001.26 0l12.501-8.722c.497-.347.618-1.03.27-1.526z"/></g><mask id="a" maskUnits="userSpaceOnUse" x="47" y="20" width="141" height="151"><path fill-rule="evenodd" clip-rule="evenodd" d="M187.034 51.456c0 65.644-9.193 118.847-74.436 118.847-65.244 0-68.901-113.934-63.988-118.847 4.913-4.914-1.256-30.691 63.988-30.691 65.243 0 74.436 30.69 74.436 30.69z" fill="#DDE4E9"/></mask><g mask="url(#a)"><path d="M152.595 121.748H88.808c-9.332 0-15.783 7.79-15.783 17.126l19.234 33.497-20.349 25.143c0 5.312 2.458 10.049 6.29 13.147v87.23h3.757l6.95-83.476H152.5l6.949 83.476h3.757v-87.23c3.835-3.098 6.29-7.835 6.29-13.147v-58.865c0-9.333-7.566-16.901-16.902-16.901z" fill="#B6D5E1"/><path d="M164.007 110.516c-2.087-10.511-11.309-18.083-22.025-18.083h-13.036c0 4.219-7.188 7.639-16.053 7.639-8.865 0-16.05-3.42-16.053-7.639H80.993c-9.39 0-17.79 5.845-21.056 14.652l-6.93 18.696 19.316 13.151 5.003 33.435h71.133l4.387-29.331 17.157-2.303-5.996-30.217z" fill="#FF6361"/><path d="M120.666 92.436l.037-.01V69.84c2.27-.647 3.943-2.71 3.943-5.189 0-2.478-1.673-4.542-3.943-5.188a5.338 5.338 0 00-1.478-.229c-1.07 0-2.06.32-2.898.855-3.775-2.71-4.943-7.508-4.943-7.508-15.753 0-19.359 9.239-19.359 9.239v12.854c0 3.488 3.246 6.067 6.643 5.283l6.42-1.68V92.44h-8.242c0 4.218 7.188 7.639 16.053 7.639 8.865 0 16.05-3.42 16.053-7.64h-8.286v-.003z" fill="#F5C5B6"/><path d="M122.579 46.642a9.527 9.527 0 00-4.593-17.874c-5.262 0-9.527 4.265-9.527 9.527 0 1.475.343 2.865.942 4.111-9.053.293-20.86 4.488-17.376 19.41 0 0 3.606-9.239 19.359-9.239 0 0 1.169 4.798 4.943 7.508a5.362 5.362 0 012.898-.855 5.37 5.37 0 011.478.229c2.27.646 3.943 2.71 3.943 5.188 0 2.478-1.673 4.542-3.943 5.188v7.485s8.242-5.606 8.242-17.003c0-5.982-2.592-10.615-6.366-13.675z" fill="#2C2C4E"/><path d="M140.704 117.485l-1.461.317 5.719 26.362 1.46-.317-5.718-26.362zM69.995 118.368l-1.474.246 3.46 20.705 1.473-.247-3.459-20.704zM107.319 59.793a5.126 5.126 0 00-5.034 4.194h-2.836c-.44-2.38-2.525-4.194-5.034-4.194a5.132 5.132 0 00-5.13 5.124 5.132 5.132 0 005.13 5.124 5.126 5.126 0 005.034-4.194h2.836c.44 2.38 2.525 4.194 5.034 4.194a5.132 5.132 0 005.13-5.124 5.135 5.135 0 00-5.13-5.124zM94.415 68.18a3.27 3.27 0 01-3.267-3.264 3.267 3.267 0 016.535 0 3.272 3.272 0 01-3.268 3.264zm12.904 0a3.27 3.27 0 01-3.268-3.264 3.267 3.267 0 016.535 0 3.27 3.27 0 01-3.267 3.264z" fill="#203254"/><path d="M172.483 150.89l-2.481-10.158-57.114 7.667-6.326-3.714-12.31 5.084v13.824h68.255c6.66.003 11.558-6.235 9.976-12.703z" fill="#F5C5B6"/></g><path d="M53.013 134.584l-6.952 18.76-30.268 6.104-7.848-5.953-7.447 7.448V172.4H52.569c6.013 0 11.44-3.61 13.766-9.155l6.39-15.234-19.712-13.427z" fill="#F5C5B6"/><path d="M158.158 158.267h46.34v13.201h-46.34a6.602 6.602 0 01-6.602-6.603 6.599 6.599 0 016.602-6.598z" fill="#FF6361"/><path d="M158.16 166.984a2.12 2.12 0 01-2.118-2.118 2.12 2.12 0 012.118-2.118h46.34v4.236h-46.34z" fill="#EBEBE2"/><path d="M159.014 138.689h35.694c5.407 0 9.787 4.383 9.787 9.787 0 5.407-4.383 9.787-9.787 9.787h-35.694v-19.574z" fill="url(#paint1_linear)"/><path d="M159.014 153.782v-10.609h35.694a5.308 5.308 0 015.303 5.303 5.308 5.308 0 01-5.303 5.302h-35.694v.004z" fill="#EBEBE2"/><path fill-rule="evenodd" clip-rule="evenodd" d="M98.316 163.551l-13.52-53.36H.498l15.724 62.051h115.397v-8.691H98.316z" fill="url(#paint2_linear)"/><defs><linearGradient id="paint0_linear" x1="150.543" y1="57.363" x2="198.638" y2="19.309" gradientUnits="userSpaceOnUse"><stop stop-color="#FFB36D"/><stop offset="1" stop-color="#F88"/></linearGradient><linearGradient id="paint1_linear" x1="169.879" y1="135.85" x2="186.848" y2="165.321" gradientUnits="userSpaceOnUse"><stop stop-color="#FFD3AA"/><stop offset="1" stop-color="#FF9696"/></linearGradient><linearGradient id="paint2_linear" x1="-9.639" y1="166.936" x2="45.516" y2="74.862" gradientUnits="userSpaceOnUse"><stop stop-color="#FFB36D"/><stop offset="1" stop-color="#F88"/></linearGradient><clipPath id="clip0"><path fill="#fff" transform="translate(165.219 23.598)" d="M0 0h27.2v27.111H0z"/></clipPath></defs></svg>
